;FLAVOR:Marlin
;TIME:13099
;Filament used: 4.65801m
;Layer height: 0.2
;Generated with Cura_SteamEngine 3.0.4
M82 ; absolute extrusion mode
G21 ; set units to millimeters
G90 ; use absolute positioning
M82 ; absolute extrusion mode
M104 S215 ; set extruder temp
M140 S70 ; set bed temp
M190 S70 ; wait for bed temp
M109 S215 ; wait for extruder temp
G28 W ; home all without mesh bed level
G80 ; mesh bed leveling
G92 E0.0 ; reset extruder distance position
G1 Y-3.0 F1000.0 ; go outside print area
G1 X60.0 E9.0 F1000.0 ; intro line
G1 X100.0 E21.5 F1000.0 ; intro line
G92 E0.0 ; reset extruder distance position
;LAYER_COUNT:50
;LAYER:0
M107
G0 F3600 X51.534 Y26.555 Z0.15
;TYPE:SKIRT
G1 F1800 X51.943 Y25.88 E0.00742
G1 X52.211 Y25.508 E0.01174
G1 X52.687 Y24.887 E0.01909
G1 X53.199 Y24.285 E0.02653
G1 X53.769 Y23.738 E0.03396
G1 X54.13 Y23.444 E0.03834
G1 X54.753 Y22.966 E0.04572
G1 X55.403 Y22.517 E0.05315
G1 X56.095 Y22.137 E0.06058
G1 X56.525 Y21.944 E0.06501
G1 X57.247 Y21.646 E0.07236
G1 X57.991 Y21.382 E0.07978
G1 X58.759 Y21.195 E0.08722
G1 X59.188 Y21.125 E0.0913
G1 X59.965 Y21.021 E0.09868
G1 X61.002 Y20.952 E0.10845
G1 X189.393 Y20.978 E1.316
G1 X190.181 Y21.018 E1.32343
G1 X190.962 Y21.138 E1.33086
G1 X191.404 Y21.242 E1.33513
G1 X192.16 Y21.444 E1.34249
G1 X192.912 Y21.687 E1.34992
G1 X193.635 Y22.004 E1.35735
G1 X194.05 Y22.227 E1.36178
G1 X194.73 Y22.62 E1.36916
G1 X195.393 Y23.049 E1.37659
G1 X196.009 Y23.543 E1.38402
G1 X196.342 Y23.858 E1.38833
G1 X196.894 Y24.41 E1.39567
G1 X197.424 Y24.996 E1.4031
G1 X197.891 Y25.632 E1.41052
G1 X198.125 Y26.009 E1.4147
G1 X198.518 Y26.686 E1.42206
G1 X198.879 Y27.388 E1.42948
G1 X199.168 Y28.123 E1.43691
G1 X199.31 Y28.598 E1.44157
G1 X199.512 Y29.358 E1.44897
G1 X199.676 Y30.131 E1.4564
G1 X199.761 Y30.916 E1.46383
G1 X199.774 Y31.358 E1.46799
G1 X199.8 Y77.748 E1.9043
G1 X199.733 Y78.776 E1.91399
G1 X199.63 Y79.554 E1.92137
G1 X199.486 Y80.33 E1.92879
G1 X199.265 Y81.088 E1.93622
G1 X199.102 Y81.518 E1.94054
G1 X198.803 Y82.239 E1.94788
G1 X198.464 Y82.952 E1.95531
G1 X198.055 Y83.627 E1.96273
G1 X197.792 Y83.991 E1.96696
G1 X197.316 Y84.613 E1.97432
G1 X196.805 Y85.215 E1.98175
G1 X196.236 Y85.763 E1.98918
G1 X195.864 Y86.066 E1.99369
G1 X195.241 Y86.543 E2.00107
G1 X194.59 Y86.991 E2.0085
G1 X193.898 Y87.371 E2.01593
G1 X193.483 Y87.556 E2.0202
G1 X192.761 Y87.855 E2.02755
G1 X192.017 Y88.12 E2.03498
G1 X191.251 Y88.309 E2.0424
G1 X190.802 Y88.381 E2.04668
G1 X190.025 Y88.484 E2.05405
G1 X188.998 Y88.552 E2.06373
G1 X60.607 Y88.527 E3.27128
G1 X59.819 Y88.487 E3.2787
G1 X59.038 Y88.367 E3.28614
G1 X58.596 Y88.263 E3.29041
G1 X57.84 Y88.061 E3.29777
G1 X57.088 Y87.818 E3.3052
G1 X56.365 Y87.501 E3.31262
G1 X55.943 Y87.274 E3.31713
G1 X55.263 Y86.88 E3.32452
G1 X54.6 Y86.45 E3.33196
G1 X53.985 Y85.955 E3.33938
G1 X53.663 Y85.651 E3.34355
G1 X53.111 Y85.1 E3.35088
G1 X52.581 Y84.515 E3.35831
G1 X52.113 Y83.879 E3.36573
G1 X51.87 Y83.486 E3.37008
G1 X51.476 Y82.805 E3.37748
G1 X51.115 Y82.102 E3.38491
G1 X50.828 Y81.367 E3.39233
G1 X50.689 Y80.903 E3.39689
G1 X50.488 Y80.147 E3.40424
G1 X50.324 Y79.375 E3.41167
G1 X50.239 Y78.59 E3.41909
G1 X50.226 Y78.147 E3.42326
G1 X50.2 Y31.756 E3.85958
G1 X50.268 Y30.727 E3.86928
G1 X50.371 Y29.95 E3.87665
G1 X50.514 Y29.173 E3.88408
G1 X50.735 Y28.415 E3.89151
G1 X50.897 Y27.991 E3.89578
G1 X51.196 Y27.269 E3.90313
G1 X51.534 Y26.555 E3.91056
G0 F3600 X51.896 Y26.727
G1 F1800 X52.297 Y26.071 E3.91779
G1 X52.529 Y25.751 E3.92151
G1 X53.005 Y25.13 E3.92887
G1 X53.504 Y24.545 E3.9361
G1 X54.061 Y24.015 E3.94333
G1 X54.373 Y23.761 E3.94711
G1 X54.996 Y23.283 E3.9545
G1 X55.63 Y22.847 E3.96174
G1 X56.306 Y22.479 E3.96898
G1 X56.678 Y22.314 E3.9728
G1 X57.4 Y22.016 E3.98015
G1 X58.125 Y21.76 E3.98738
G1 X59.241 Y21.521 E3.99811
G1 X60.018 Y21.417 E4.00549
G1 X61.001 Y21.352 E4.01475
G1 X189.392 Y21.378 E5.22231
G1 X190.161 Y21.418 E5.22955
G1 X190.92 Y21.538 E5.23678
G1 X191.301 Y21.629 E5.24046
G1 X192.057 Y21.831 E5.24782
G1 X192.789 Y22.068 E5.25506
G1 X193.492 Y22.379 E5.26229
G1 X193.85 Y22.573 E5.26612
G1 X194.53 Y22.966 E5.2735
G1 X195.175 Y23.385 E5.28074
G1 X195.773 Y23.869 E5.28797
G1 X196.06 Y24.14 E5.29169
G1 X196.612 Y24.692 E5.29903
G1 X197.126 Y25.264 E5.30626
G1 X197.779 Y26.21 E5.31707
G1 X198.172 Y26.887 E5.32443
G1 X198.523 Y27.571 E5.33167
G1 X198.801 Y28.288 E5.3389
G1 X198.924 Y28.701 E5.34295
G1 X199.126 Y29.461 E5.35035
G1 X199.284 Y30.214 E5.35758
G1 X199.374 Y31.358 E5.36838
G1 X199.4 Y77.748 E5.80469
G1 X199.336 Y78.723 E5.81388
G1 X199.233 Y79.501 E5.82126
G1 X199.093 Y80.257 E5.82849
G1 X198.874 Y80.995 E5.83573
G1 X198.733 Y81.365 E5.83945
G1 X198.434 Y82.086 E5.8468
G1 X198.102 Y82.78 E5.85403
G1 X197.701 Y83.436 E5.86126
G1 X197.475 Y83.748 E5.86489
G1 X196.999 Y84.37 E5.87225
G1 X196.5 Y84.956 E5.87949
G1 X195.943 Y85.487 E5.88673
G1 X195.621 Y85.749 E5.89063
G1 X194.998 Y86.226 E5.89801
G1 X194.363 Y86.661 E5.90525
G1 X193.688 Y87.028 E5.91248
G1 X193.33 Y87.187 E5.91616
G1 X192.608 Y87.486 E5.92351
G1 X191.883 Y87.743 E5.93075
G1 X191.136 Y87.923 E5.93797
G1 X190.749 Y87.985 E5.94166
G1 X189.972 Y88.088 E5.94903
G1 X188.999 Y88.152 E5.9582
G1 X60.608 Y88.127 E7.16576
G1 X59.839 Y88.087 E7.173
G1 X59.08 Y87.967 E7.18023
G1 X58.699 Y87.876 E7.18391
G1 X57.943 Y87.674 E7.19127
G1 X57.211 Y87.437 E7.19851
G1 X56.508 Y87.126 E7.20574
G1 X56.143 Y86.928 E7.20964
G1 X55.463 Y86.534 E7.21703
G1 X54.819 Y86.114 E7.22427
G1 X53.945 Y85.368 E7.23507
G1 X53.393 Y84.817 E7.24241
G1 X52.878 Y84.246 E7.24964
G1 X52.424 Y83.625 E7.25688
G1 X52.216 Y83.286 E7.26062
G1 X51.822 Y82.605 E7.26802
G1 X51.472 Y81.92 E7.27525
G1 X51.195 Y81.202 E7.28249
G1 X51.075 Y80.8 E7.28643
G1 X50.874 Y80.044 E7.29379
G1 X50.716 Y79.292 E7.30102
G1 X50.626 Y78.147 E7.31182
G1 X50.6 Y31.756 E7.74814
G1 X50.664 Y30.78 E7.75734
G1 X50.767 Y30.003 E7.76471
G1 X50.908 Y29.246 E7.77196
G1 X51.126 Y28.509 E7.77918
G1 X51.266 Y28.144 E7.78286
G1 X51.565 Y27.422 E7.79021
G1 X51.896 Y26.727 E7.79745
G0 F3600 X52.257 Y26.9
G1 F1800 X52.846 Y25.995 E7.80761
G1 X53.322 Y25.374 E7.81497
G1 X53.808 Y24.805 E7.822
G1 X54.617 Y24.078 E7.83223
G1 X55.24 Y23.6 E7.83962
G1 X55.857 Y23.177 E7.84665
G1 X56.83 Y22.683 E7.85692
G1 X57.552 Y22.385 E7.86426
G1 X58.258 Y22.137 E7.8713
G1 X59.294 Y21.918 E7.88126
G1 X60.071 Y21.814 E7.88863
G1 X61.001 Y21.752 E7.8974
G1 X189.392 Y21.778 E9.10495
G1 X190.139 Y21.818 E9.11199
G1 X191.198 Y22.015 E9.12212
G1 X191.954 Y22.217 E9.12948
G1 X192.665 Y22.449 E9.13651
G1 X193.65 Y22.919 E9.14678
G1 X194.33 Y23.312 E9.15417
G1 X194.956 Y23.721 E9.1612
G1 X195.777 Y24.423 E9.17136
G1 X196.329 Y24.975 E9.1787
G1 X196.829 Y25.532 E9.18574
G1 X197.433 Y26.411 E9.19577
G1 X197.826 Y27.088 E9.20313
G1 X198.166 Y27.754 E9.21017
G1 X198.537 Y28.804 E9.22064
G1 X198.739 Y29.564 E9.22804
G1 X198.892 Y30.296 E9.23507
G1 X198.974 Y31.358 E9.24509
G1 X199 Y77.748 E9.6814
G1 X198.939 Y78.671 E9.6901
G1 X198.836 Y79.449 E9.69748
G1 X198.699 Y80.184 E9.70451
G1 X198.363 Y81.211 E9.71468
G1 X198.064 Y81.932 E9.72202
G1 X197.741 Y82.607 E9.72905
G1 X197.157 Y83.505 E9.73913
G1 X196.681 Y84.127 E9.7465
G1 X196.195 Y84.696 E9.75353
G1 X195.377 Y85.431 E9.76388
G1 X194.754 Y85.908 E9.77126
G1 X194.137 Y86.33 E9.77829
G1 X193.177 Y86.817 E9.78841
G1 X192.455 Y87.116 E9.79576
G1 X191.75 Y87.365 E9.80279
G1 X190.697 Y87.588 E9.81292
G1 X189.92 Y87.691 E9.82029
G1 X188.999 Y87.752 E9.82897
G1 X60.608 Y87.727 E11.03652
G1 X59.861 Y87.687 E11.04356
G1 X58.802 Y87.49 E11.05369
G1 X58.046 Y87.288 E11.06105
G1 X57.335 Y87.056 E11.06808
G1 X56.344 Y86.582 E11.07842
G1 X55.664 Y86.188 E11.08581
G1 X55.037 Y85.779 E11.09285
G1 X54.228 Y85.085 E11.10287
G1 X53.676 Y84.534 E11.11021
G1 X53.175 Y83.978 E11.11725
G1 X52.562 Y83.086 E11.12743
G1 X52.168 Y82.405 E11.13483
G1 X51.829 Y81.738 E11.14187
G1 X51.462 Y80.698 E11.15224
G1 X51.261 Y79.942 E11.1596
G1 X51.108 Y79.209 E11.16664
G1 X51.026 Y78.147 E11.17666
G1 X51 Y31.756 E11.61298
G1 X51.061 Y30.832 E11.62169
G1 X51.164 Y30.055 E11.62906
G1 X51.301 Y29.32 E11.63609
G1 X51.636 Y28.297 E11.64621
G1 X51.935 Y27.575 E11.65356
G1 X52.257 Y26.9 E11.6606
G0 F3600 X52.619 Y27.073
G1 F1800 X53.164 Y26.238 E11.66998
G1 X53.64 Y25.617 E11.67733
G1 X54.113 Y25.066 E11.68416
G1 X54.86 Y24.396 E11.6936
G1 X55.483 Y23.918 E11.70099
G1 X56.083 Y23.508 E11.70782
G1 X56.983 Y23.053 E11.71731
G1 X57.705 Y22.755 E11.72465
G1 X58.391 Y22.515 E11.73149
G1 X59.347 Y22.314 E11.74068
G1 X60.124 Y22.21 E11.74805
G1 X61.001 Y22.152 E11.75632
G1 X189.392 Y22.178 E12.96387
G1 X190.118 Y22.218 E12.97071
G1 X191.095 Y22.402 E12.98006
G1 X191.851 Y22.604 E12.98742
G1 X192.541 Y22.83 E12.99425
G1 X193.45 Y23.266 E13.00373
G1 X194.13 Y23.659 E13.01112
G1 X194.737 Y24.056 E13.01794
G1 X195.494 Y24.706 E13.02732
G1 X196.046 Y25.258 E13.03466
G1 X196.53 Y25.799 E13.04149
G1 X197.087 Y26.612 E13.05076
G1 X197.48 Y27.289 E13.05812
G1 X197.81 Y27.936 E13.06495
G1 X198.151 Y28.907 E13.07463
G1 X198.353 Y29.667 E13.08203
G1 X198.5 Y30.378 E13.08886
G1 X198.574 Y31.358 E13.0981
G1 X198.6 Y77.748 E13.53441
G1 X198.543 Y78.618 E13.54261
G1 X198.44 Y79.396 E13.54999
G1 X198.305 Y80.11 E13.55683
G1 X197.994 Y81.058 E13.56621
G1 X197.695 Y81.779 E13.57355
G1 X197.38 Y82.434 E13.58039
G1 X196.839 Y83.262 E13.58969
G1 X196.363 Y83.884 E13.59706
G1 X195.891 Y84.436 E13.60389
G1 X195.134 Y85.113 E13.61344
G1 X194.511 Y85.59 E13.62082
G1 X193.911 Y86 E13.62766
G1 X193.024 Y86.448 E13.637
G1 X192.302 Y86.747 E13.64435
G1 X191.617 Y86.987 E13.65118
G1 X190.644 Y87.192 E13.66053
G1 X189.867 Y87.295 E13.6679
G1 X188.999 Y87.352 E13.67608
G1 X60.608 Y87.327 E14.88364
G1 X59.882 Y87.287 E14.89048
G1 X58.905 Y87.103 E14.89983
G1 X58.149 Y86.901 E14.90719
G1 X57.459 Y86.675 E14.91401
G1 X56.544 Y86.236 E14.92356
G1 X55.864 Y85.842 E14.93095
G1 X55.257 Y85.443 E14.93778
G1 X54.51 Y84.802 E14.94704
G1 X53.958 Y84.251 E14.95438
G1 X53.473 Y83.71 E14.96121
G1 X52.908 Y82.885 E14.97061
G1 X52.514 Y82.204 E14.97801
G1 X52.186 Y81.556 E14.98485
G1 X51.849 Y80.595 E14.99442
G1 X51.648 Y79.839 E15.00178
G1 X51.5 Y79.128 E15.00861
G1 X51.426 Y78.147 E15.01786
G1 X51.4 Y31.756 E15.45418
G1 X51.457 Y30.885 E15.46239
G1 X51.56 Y30.108 E15.46977
G1 X51.695 Y29.394 E15.4766
G1 X52.005 Y28.45 E15.48595
G1 X52.304 Y27.728 E15.4933
G1 X52.619 Y27.073 E15.50013
G0 F3600 X52.98 Y27.247
G1 F1800 X53.481 Y26.481 E15.50874
G1 X53.957 Y25.86 E15.5161
G1 X54.417 Y25.327 E15.52272
G1 X55.104 Y24.713 E15.53139
G1 X55.727 Y24.235 E15.53877
G1 X56.309 Y23.839 E15.54539
G1 X57.136 Y23.423 E15.5541
G1 X57.858 Y23.125 E15.56145
G1 X58.522 Y22.894 E15.56806
G1 X59.4 Y22.711 E15.57649
G1 X60.177 Y22.607 E15.58387
G1 X61.001 Y22.552 E15.59163
G1 X189.392 Y22.578 E16.79919
G1 X190.095 Y22.618 E16.80581
G1 X190.991 Y22.788 E16.81439
G1 X191.747 Y22.99 E16.82175
G1 X192.416 Y23.21 E16.82837
G1 X193.249 Y23.612 E16.83707
G1 X193.929 Y24.005 E16.84446
G1 X194.518 Y24.391 E16.85108
G1 X195.211 Y24.989 E16.85969
G1 X195.763 Y25.541 E16.86703
G1 X196.232 Y26.066 E16.87365
G1 X196.741 Y26.812 E16.88215
G1 X197.134 Y27.489 E16.88951
G1 X197.452 Y28.117 E16.89613
G1 X197.764 Y29.009 E16.90502
G1 X197.966 Y29.769 E16.91241
G1 X198.108 Y30.459 E16.91904
G1 X198.174 Y31.359 E16.92753
G1 X198.2 Y77.749 E17.36384
G1 X198.146 Y78.566 E17.37154
G1 X198.043 Y79.344 E17.37892
G1 X197.912 Y80.035 E17.38553
G1 X197.624 Y80.905 E17.39415
G1 X197.325 Y81.626 E17.40149
G1 X197.019 Y82.26 E17.40812
G1 X196.522 Y83.019 E17.41665
G1 X196.046 Y83.641 E17.42402
G1 X195.587 Y84.175 E17.43064
G1 X194.891 Y84.796 E17.43941
G1 X194.268 Y85.273 E17.44679
G1 X193.686 Y85.668 E17.45341
G1 X192.871 Y86.078 E17.46199
G1 X192.149 Y86.377 E17.46934
G1 X191.485 Y86.609 E17.47595
G1 X190.592 Y86.795 E17.48453
G1 X189.815 Y86.898 E17.4919
G1 X188.999 Y86.952 E17.49959
G1 X60.608 Y86.927 E18.70715
G1 X59.905 Y86.887 E18.71377
G1 X59.009 Y86.717 E18.72235
G1 X58.253 Y86.515 E18.72971
G1 X57.584 Y86.295 E18.73633
G1 X56.745 Y85.89 E18.74509
G1 X56.065 Y85.496 E18.75249
G1 X55.477 Y85.109 E18.75911
G1 X54.793 Y84.519 E18.7676
G1 X54.241 Y83.968 E18.77494
G1 X53.772 Y83.443 E18.78156
G1 X53.254 Y82.685 E18.79019
G1 X52.86 Y82.004 E18.79759
G1 X52.543 Y81.375 E18.80422
G1 X52.235 Y80.492 E18.81301
G1 X52.034 Y79.736 E18.82037
G1 X51.892 Y79.047 E18.82699
G1 X51.826 Y78.146 E18.83548
G1 X51.8 Y31.755 E19.2718
G1 X51.854 Y30.937 E19.27951
G1 X51.957 Y30.16 E19.28689
G1 X52.089 Y29.469 E19.2935
G1 X52.375 Y28.603 E19.30208
G1 X52.674 Y27.881 E19.30943
G1 X52.98 Y27.247 E19.31605
G0 F3600 X53.34 Y27.421
G1 F1800 X53.799 Y26.725 E19.32389
G1 X54.275 Y26.104 E19.33125
G1 X54.72 Y25.588 E19.33766
G1 X55.347 Y25.03 E19.34555
G1 X55.97 Y24.552 E19.35294
G1 X56.534 Y24.17 E19.35935
G1 X57.288 Y23.793 E19.36728
G1 X58.01 Y23.495 E19.37462
G1 X58.654 Y23.272 E19.38103
G1 X59.454 Y23.107 E19.38871
G1 X60.231 Y23.003 E19.39609
G1 X61.001 Y22.952 E19.40335
G1 X189.392 Y22.978 E20.6109
G1 X190.072 Y23.018 E20.61731
G1 X190.888 Y23.175 E20.62512
G1 X191.644 Y23.377 E20.63248
G1 X192.291 Y23.591 E20.63889
G1 X193.049 Y23.958 E20.64681
G1 X193.729 Y24.351 E20.6542
G1 X194.298 Y24.726 E20.66061
G1 X194.928 Y25.272 E20.66845
G1 X195.48 Y25.824 E20.67579
G1 X195.933 Y26.333 E20.6822
G1 X196.395 Y27.013 E20.68993
G1 X196.788 Y27.69 E20.69729
G1 X197.095 Y28.298 E20.7037
G1 X197.377 Y29.112 E20.7118
G1 X197.579 Y29.872 E20.7192
G1 X197.715 Y30.539 E20.7256
G1 X197.774 Y31.359 E20.73333
G1 X197.8 Y77.749 E21.16964
G1 X197.75 Y78.513 E21.17684
G1 X197.647 Y79.291 E21.18423
G1 X197.518 Y79.96 E21.19063
G1 X197.255 Y80.752 E21.19848
G1 X196.956 Y81.473 E21.20582
G1 X196.658 Y82.085 E21.21223
G1 X196.204 Y82.776 E21.22
G1 X195.728 Y83.398 E21.22737
G1 X195.283 Y83.913 E21.23377
G1 X194.648 Y84.478 E21.24176
G1 X194.025 Y84.955 E21.24914
G1 X193.461 Y85.337 E21.25555
G1 X192.718 Y85.709 E21.26337
G1 X191.996 Y86.008 E21.27072
G1 X191.353 Y86.231 E21.27712
G1 X190.539 Y86.399 E21.28493
G1 X189.762 Y86.502 E21.29231
G1 X188.999 Y86.552 E21.2995
G1 X60.608 Y86.527 E22.50705
G1 X59.928 Y86.487 E22.51346
G1 X59.112 Y86.33 E22.52127
G1 X58.356 Y86.128 E22.52863
G1 X57.709 Y85.914 E22.53504
G1 X56.945 Y85.543 E22.54303
G1 X56.265 Y85.149 E22.55042
G1 X55.697 Y84.774 E22.55682
G1 X55.076 Y84.236 E22.56455
G1 X54.524 Y83.685 E22.57189
G1 X54.071 Y83.176 E22.5783
G1 X53.601 Y82.485 E22.58616
G1 X53.207 Y81.804 E22.59355
G1 X52.901 Y81.195 E22.59996
G1 X52.622 Y80.389 E22.60799
G1 X52.421 Y79.633 E22.61534
G1 X52.285 Y78.966 E22.62175
G1 X52.226 Y78.146 E22.62948
G1 X52.2 Y31.755 E23.0658
G1 X52.25 Y30.99 E23.07301
G1 X52.353 Y30.213 E23.08038
G1 X52.482 Y29.544 E23.08679
G1 X52.744 Y28.756 E23.0946
G1 X53.043 Y28.034 E23.10195
G1 X53.34 Y27.421 E23.10836
G0 F3600 X53.701 Y27.596
G1 F1800 X54.116 Y26.968 E23.11544
G1 X54.592 Y26.347 E23.1228
G1 X55.023 Y25.851 E23.12898
G1 X55.591 Y25.348 E23.13611
G1 X56.214 Y24.87 E23.1435
G1 X56.758 Y24.502 E23.14967
G1 X57.441 Y24.162 E23.15685
G1 X58.163 Y23.864 E23.1642
G1 X58.784 Y23.651 E23.17037
G1 X59.507 Y23.504 E23.17731
G1 X60.284 Y23.4 E23.18468
G1 X61.001 Y23.352 E23.19144
G1 X189.392 Y23.378 E24.39899
G1 X190.048 Y23.418 E24.40518
G1 X190.785 Y23.561 E24.41224
G1 X191.541 Y23.763 E24.4196
G1 X192.164 Y23.971 E24.42577
G1 X192.849 Y24.305 E24.43294
G1 X193.529 Y24.698 E24.44033
G1 X194.077 Y25.06 E24.44651
G1 X194.645 Y25.555 E24.45359
G1 X195.197 Y26.107 E24.46093
G1 X195.633 Y26.599 E24.46712
G1 X196.049 Y27.214 E24.4741
G1 X196.442 Y27.891 E24.48146
G1 X196.737 Y28.478 E24.48764
