;FLAVOR:Marlin
;TIME:7741
;Filament used: 2.7225m
;Layer height: 0.2
;Generated with Cura_SteamEngine 3.0.4
M82 ; absolute extrusion mode
G21 ; set units to millimeters
G90 ; use absolute positioning
M82 ; absolute extrusion mode
M104 S215 ; set extruder temp
M140 S70 ; set bed temp
M190 S70 ; wait for bed temp
M109 S215 ; wait for extruder temp
G28 W ; home all without mesh bed level
G80 ; mesh bed leveling
G92 E0.0 ; reset extruder distance position
G1 Y-3.0 F1000.0 ; go outside print area
G1 X60.0 E9.0 F1000.0 ; intro line
G1 X100.0 E21.5 F1000.0 ; intro line
G92 E0.0 ; reset extruder distance position
;LAYER_COUNT:50
;LAYER:0
M107
G0 F3600 X54.255 Y73.567 Z0.15
;TYPE:SKIRT
G1 F1800 X54.892 Y73.1 E0.00743
G1 X55.295 Y72.852 E0.01188
G1 X55.976 Y72.461 E0.01926
G1 X56.68 Y72.103 E0.02669
G1 X57.417 Y71.818 E0.03413
G1 X57.862 Y71.685 E0.03849
G1 X58.613 Y71.486 E0.0458
G1 X59.386 Y71.323 E0.05323
G1 X60.171 Y71.238 E0.06066
G1 X60.611 Y71.226 E0.0648
G1 X189.402 Y71.228 E1.27611
G1 X190.191 Y71.268 E1.28354
G1 X190.912 Y71.376 E1.2904
G1 X191.282 Y71.449 E1.29395
G1 X192.268 Y71.711 E1.30354
G1 X192.647 Y71.839 E1.3073
G1 X193.381 Y72.129 E1.31473
G1 X194.073 Y72.487 E1.32205
G1 X194.752 Y72.882 E1.32944
G1 X195.414 Y73.313 E1.33687
G1 X196.028 Y73.809 E1.3443
G1 X196.35 Y74.114 E1.34847
G1 X196.904 Y74.669 E1.35584
G1 X197.433 Y75.255 E1.36327
G1 X197.9 Y75.892 E1.3707
G1 X198.148 Y76.295 E1.37515
G1 X198.539 Y76.976 E1.38253
G1 X198.897 Y77.68 E1.38996
G1 X199.182 Y78.417 E1.39739
G1 X199.313 Y78.857 E1.40171
G1 X199.512 Y79.606 E1.409
G1 X199.676 Y80.379 E1.41643
G1 X199.761 Y81.164 E1.42386
G1 X199.774 Y81.609 E1.42805
G1 X199.772 Y128.402 E1.86815
G1 X199.732 Y129.191 E1.87558
G1 X199.624 Y129.912 E1.88243
G1 X199.551 Y130.282 E1.88598
G1 X199.289 Y131.268 E1.89558
G1 X199.161 Y131.647 E1.89934
G1 X198.871 Y132.381 E1.90676
G1 X198.513 Y133.073 E1.91409
G1 X198.118 Y133.752 E1.92148
G1 X197.687 Y134.414 E1.92891
G1 X197.191 Y135.028 E1.93633
G1 X196.886 Y135.35 E1.9405
G1 X196.331 Y135.904 E1.94788
G1 X195.745 Y136.433 E1.9553
G1 X195.108 Y136.9 E1.96273
G1 X194.705 Y137.148 E1.96718
G1 X194.024 Y137.539 E1.97457
G1 X193.32 Y137.897 E1.982
G1 X192.613 Y138.173 E1.98913
G1 X192.245 Y138.296 E1.99278
G1 X191.484 Y138.508 E2.00021
G1 X190.79 Y138.631 E2.00684
G1 X190.015 Y138.733 E2.01419
G1 X188.995 Y138.8 E2.02381
G1 X60.609 Y138.774 E3.23131
G1 X59.821 Y138.734 E3.23874
G1 X59.1 Y138.626 E3.24559
G1 X58.705 Y138.548 E3.24938
G1 X57.939 Y138.356 E3.25681
G1 X57.205 Y138.091 E3.26415
G1 X56.481 Y137.788 E3.27153
G1 X55.769 Y137.447 E3.27895
G1 X55.095 Y137.035 E3.28638
G1 X54.725 Y136.767 E3.29068
G1 X54.106 Y136.289 E3.29803
G1 X53.506 Y135.775 E3.30547
G1 X52.961 Y135.203 E3.3129
G1 X52.672 Y134.846 E3.31722
G1 X52.199 Y134.226 E3.32455
G1 X51.752 Y133.575 E3.33198
G1 X51.374 Y132.882 E3.3394
G1 X51.189 Y132.467 E3.34368
G1 X50.891 Y131.744 E3.35103
G1 X50.627 Y131 E3.35846
G1 X50.451 Y130.29 E3.36534
G1 X50.375 Y129.907 E3.36901
G1 X50.261 Y129.126 E3.37643
G1 X50.226 Y128.389 E3.38337
G1 X50.228 Y81.598 E3.82345
G1 X50.268 Y80.809 E3.83088
G1 X50.376 Y80.088 E3.83774
G1 X50.449 Y79.718 E3.84129
G1 X50.711 Y78.732 E3.85088
G1 X50.839 Y78.353 E3.85465
G1 X51.129 Y77.619 E3.86207
G1 X51.487 Y76.927 E3.8694
G1 X51.882 Y76.248 E3.87678
G1 X52.313 Y75.586 E3.88421
G1 X52.809 Y74.972 E3.89164
G1 X53.114 Y74.65 E3.89581
G1 X53.669 Y74.096 E3.90318
G1 X54.255 Y73.567 E3.91061
G0 F3600 X54.523 Y73.864
G1 F1800 X55.145 Y73.412 E3.91784
G1 X55.494 Y73.199 E3.92169
G1 X56.175 Y72.808 E3.92907
G1 X56.861 Y72.46 E3.93631
G1 X57.58 Y72.185 E3.94355
G1 X57.965 Y72.072 E3.94732
G1 X58.716 Y71.873 E3.95463
G1 X59.468 Y71.715 E3.96186
G1 X60.611 Y71.626 E3.97264
G1 X189.402 Y71.628 E5.18395
G1 X190.17 Y71.668 E5.19119
G1 X190.834 Y71.768 E5.1975
G1 X191.204 Y71.841 E5.20105
G1 X192.14 Y72.09 E5.21016
G1 X192.519 Y72.218 E5.21392
G1 X193.234 Y72.502 E5.22116
G1 X193.872 Y72.833 E5.22792
G1 X194.551 Y73.228 E5.2353
G1 X195.195 Y73.648 E5.24254
G1 X196.067 Y74.396 E5.25334
G1 X196.621 Y74.951 E5.26072
G1 X197.136 Y75.523 E5.26796
G1 X197.588 Y76.145 E5.27519
G1 X197.801 Y76.494 E5.27903
G1 X198.192 Y77.175 E5.28642
G1 X198.54 Y77.861 E5.29365
G1 X198.815 Y78.58 E5.30089
G1 X198.927 Y78.96 E5.30462
G1 X199.126 Y79.709 E5.31191
G1 X199.284 Y80.461 E5.31914
G1 X199.374 Y81.609 E5.32997
G1 X199.372 Y128.402 E5.77007
G1 X199.332 Y129.17 E5.7773
G1 X199.232 Y129.834 E5.78362
G1 X199.159 Y130.204 E5.78716
G1 X198.91 Y131.14 E5.79627
G1 X198.782 Y131.519 E5.80003
G1 X198.498 Y132.234 E5.80727
G1 X198.167 Y132.872 E5.81403
G1 X197.772 Y133.551 E5.82142
G1 X197.352 Y134.195 E5.82865
G1 X196.604 Y135.067 E5.83946
G1 X196.049 Y135.621 E5.84683
G1 X195.477 Y136.136 E5.85407
G1 X194.855 Y136.588 E5.8613
G1 X194.506 Y136.801 E5.86515
G1 X193.825 Y137.192 E5.87253
G1 X193.139 Y137.54 E5.87977
G1 X192.486 Y137.793 E5.88635
G1 X192.118 Y137.916 E5.89
G1 X191.377 Y138.122 E5.89724
G1 X190.738 Y138.235 E5.90334
G1 X189.963 Y138.337 E5.91069
G1 X188.996 Y138.4 E5.91981
G1 X60.61 Y138.374 E7.12731
G1 X59.841 Y138.334 E7.13455
G1 X59.177 Y138.234 E7.14087
G1 X58.782 Y138.156 E7.14466
G1 X58.037 Y137.968 E7.15188
G1 X57.359 Y137.722 E7.15867
G1 X56.635 Y137.419 E7.16605
G1 X55.942 Y137.086 E7.17328
G1 X55.287 Y136.682 E7.18052
G1 X54.969 Y136.45 E7.18422
G1 X54.35 Y135.972 E7.19158
G1 X53.767 Y135.471 E7.19881
G1 X53.238 Y134.912 E7.20604
G1 X52.99 Y134.603 E7.20977
G1 X52.517 Y133.983 E7.21711
G1 X52.083 Y133.349 E7.22433
G1 X51.717 Y132.672 E7.23157
G1 X51.558 Y132.315 E7.23525
G1 X51.26 Y131.592 E7.2426
G1 X51.005 Y130.867 E7.24983
G1 X50.844 Y130.212 E7.25617
G1 X50.768 Y129.829 E7.25985
G1 X50.657 Y129.068 E7.26708
G1 X50.626 Y128.389 E7.27347
G1 X50.628 Y81.598 E7.71355
G1 X50.668 Y80.83 E7.72079
G1 X50.768 Y80.166 E7.7271
G1 X50.841 Y79.796 E7.73065
G1 X51.09 Y78.86 E7.73976
G1 X51.218 Y78.481 E7.74352
G1 X51.502 Y77.766 E7.75076
G1 X51.833 Y77.128 E7.75752
G1 X52.228 Y76.449 E7.76491
G1 X52.648 Y75.805 E7.77214
G1 X53.396 Y74.933 E7.78294
G1 X53.951 Y74.379 E7.79032
G1 X54.523 Y73.864 E7.79756
G0 F3600 X54.791 Y74.162
G1 F1800 X55.694 Y73.545 E7.80784
G1 X56.375 Y73.154 E7.81523
G1 X57.042 Y72.817 E7.82226
G1 X58.067 Y72.459 E7.83247
G1 X58.818 Y72.26 E7.83978
G1 X59.55 Y72.107 E7.84681
G1 X60.611 Y72.026 E7.85682
G1 X189.402 Y72.028 E9.06813
G1 X190.149 Y72.068 E9.07517
G1 X190.757 Y72.16 E9.08095
G1 X191.127 Y72.233 E9.0845
G1 X192.012 Y72.469 E9.09311
G1 X192.391 Y72.597 E9.09688
G1 X193.086 Y72.874 E9.10391
G1 X193.671 Y73.178 E9.11011
G1 X194.35 Y73.573 E9.1175
G1 X194.975 Y73.984 E9.12454
G1 X195.784 Y74.679 E9.13457
G1 X196.338 Y75.234 E9.14194
G1 X196.838 Y75.791 E9.14898
G1 X197.455 Y76.694 E9.15927
G1 X197.846 Y77.375 E9.16665
G1 X198.183 Y78.042 E9.17368
G1 X198.54 Y79.063 E9.18386
G1 X198.739 Y79.812 E9.19115
G1 X198.892 Y80.544 E9.19818
G1 X198.974 Y81.609 E9.20822
G1 X198.972 Y128.402 E9.64833
G1 X198.932 Y129.149 E9.65536
G1 X198.84 Y129.757 E9.66115
G1 X198.767 Y130.127 E9.66469
G1 X198.531 Y131.012 E9.67331
G1 X198.403 Y131.391 E9.67707
G1 X198.126 Y132.086 E9.68411
G1 X197.822 Y132.671 E9.69031
G1 X197.427 Y133.35 E9.69769
G1 X197.016 Y133.975 E9.70473
G1 X196.321 Y134.784 E9.71476
G1 X195.766 Y135.338 E9.72214
G1 X195.209 Y135.838 E9.72918
G1 X194.306 Y136.455 E9.73946
G1 X193.625 Y136.846 E9.74685
G1 X192.958 Y137.183 E9.75388
G1 X192.359 Y137.414 E9.75992
G1 X191.991 Y137.537 E9.76356
G1 X191.27 Y137.736 E9.7706
G1 X190.685 Y137.838 E9.77618
G1 X189.91 Y137.94 E9.78354
G1 X188.996 Y138 E9.79215
G1 X60.61 Y137.974 E10.99966
G1 X59.863 Y137.934 E11.00669
G1 X59.255 Y137.841 E11.01248
G1 X58.86 Y137.763 E11.01627
G1 X58.135 Y137.579 E11.0233
G1 X57.514 Y137.353 E11.02952
G1 X56.79 Y137.05 E11.0369
G1 X56.116 Y136.725 E11.04393
G1 X55.214 Y136.133 E11.05408
G1 X54.595 Y135.655 E11.06144
G1 X54.028 Y135.167 E11.06847
G1 X53.308 Y134.361 E11.07864
G1 X52.835 Y133.741 E11.08597
G1 X52.413 Y133.123 E11.09301
G1 X51.928 Y132.162 E11.10314
G1 X51.63 Y131.439 E11.11049
G1 X51.382 Y130.734 E11.11752
G1 X51.236 Y130.134 E11.12333
G1 X51.16 Y129.751 E11.127
G1 X51.054 Y129.011 E11.13403
G1 X51.026 Y128.389 E11.13989
G1 X51.028 Y81.598 E11.57997
G1 X51.068 Y80.851 E11.58701
G1 X51.16 Y80.243 E11.59279
G1 X51.233 Y79.873 E11.59634
G1 X51.469 Y78.988 E11.60495
G1 X51.597 Y78.609 E11.60871
G1 X51.874 Y77.914 E11.61575
G1 X52.178 Y77.329 E11.62195
G1 X52.573 Y76.65 E11.62934
G1 X52.984 Y76.025 E11.63637
G1 X53.679 Y75.216 E11.6464
G1 X54.234 Y74.662 E11.65378
G1 X54.791 Y74.162 E11.66082
G0 F3600 X55.058 Y74.461
G1 F1800 X55.893 Y73.892 E11.67032
G1 X56.574 Y73.501 E11.67771
G1 X57.223 Y73.175 E11.68454
G1 X58.169 Y72.845 E11.69396
G1 X58.92 Y72.646 E11.70127
G1 X59.632 Y72.499 E11.70811
G1 X60.611 Y72.426 E11.71734
G1 X189.402 Y72.428 E12.92866
G1 X190.127 Y72.468 E12.93549
G1 X190.68 Y72.553 E12.94075
G1 X191.05 Y72.626 E12.9443
G1 X191.884 Y72.848 E12.95241
G1 X192.263 Y72.976 E12.95617
G1 X192.937 Y73.246 E12.963
G1 X193.47 Y73.524 E12.96866
G1 X194.149 Y73.919 E12.97605
G1 X194.756 Y74.318 E12.98288
G1 X195.501 Y74.961 E12.99213
G1 X196.055 Y75.516 E12.99951
G1 X196.539 Y76.058 E13.00634
G1 X197.108 Y76.893 E13.01585
G1 X197.499 Y77.574 E13.02323
G1 X197.825 Y78.223 E13.03006
G1 X198.154 Y79.165 E13.03945
G1 X198.353 Y79.914 E13.04674
G1 X198.5 Y80.625 E13.05357
G1 X198.574 Y81.609 E13.06285
G1 X198.572 Y128.402 E13.50295
G1 X198.532 Y129.128 E13.50979
G1 X198.447 Y129.68 E13.51504
G1 X198.374 Y130.05 E13.51859
G1 X198.152 Y130.884 E13.5267
G1 X198.024 Y131.263 E13.53047
G1 X197.754 Y131.937 E13.53729
G1 X197.476 Y132.47 E13.54295
G1 X197.081 Y133.149 E13.55034
G1 X196.682 Y133.756 E13.55717
G1 X196.039 Y134.501 E13.56642
G1 X195.484 Y135.055 E13.5738
G1 X194.942 Y135.539 E13.58063
G1 X194.107 Y136.108 E13.59014
G1 X193.426 Y136.499 E13.59752
G1 X192.777 Y136.825 E13.60435
G1 X192.232 Y137.035 E13.60985
G1 X191.864 Y137.158 E13.6135
G1 X191.164 Y137.35 E13.62032
G1 X190.633 Y137.442 E13.62539
G1 X189.858 Y137.544 E13.63274
G1 X188.996 Y137.6 E13.64087
G1 X60.61 Y137.574 E14.84837
G1 X59.884 Y137.534 E14.85521
G1 X59.332 Y137.449 E14.86047
G1 X58.937 Y137.371 E14.86425
G1 X58.234 Y137.191 E14.87108
G1 X57.668 Y136.984 E14.87675
G1 X56.944 Y136.681 E14.88413
G1 X56.29 Y136.364 E14.89096
G1 X55.458 Y135.817 E14.90033
G1 X54.839 Y135.339 E14.90768
G1 X54.29 Y134.864 E14.91451
G1 X53.626 Y134.118 E14.92391
G1 X53.153 Y133.498 E14.93124
G1 X52.745 Y132.897 E14.93807
G1 X52.298 Y132.01 E14.94741
G1 X52 Y131.287 E14.95477
G1 X51.761 Y130.601 E14.9616
G1 X51.628 Y130.057 E14.96687
G1 X51.552 Y129.674 E14.97054
G1 X51.45 Y128.954 E14.97738
G1 X51.426 Y128.389 E14.9827
G1 X51.428 Y81.598 E15.42278
G1 X51.468 Y80.872 E15.42962
G1 X51.553 Y80.32 E15.43487
G1 X51.626 Y79.95 E15.43842
G1 X51.848 Y79.116 E15.44654
G1 X51.976 Y78.737 E15.4503
G1 X52.246 Y78.063 E15.45713
G1 X52.524 Y77.53 E15.46278
G1 X52.919 Y76.851 E15.47017
G1 X53.318 Y76.244 E15.477
G1 X53.961 Y75.499 E15.48626
G1 X54.516 Y74.945 E15.49363
G1 X55.058 Y74.461 E15.50047
G0 F3600 X55.325 Y74.76
G1 F1800 X56.092 Y74.239 E15.50919
G1 X56.773 Y73.848 E15.51657
G1 X57.402 Y73.533 E15.52319
G1 X58.272 Y73.232 E15.53185
G1 X59.023 Y73.033 E15.53916
G1 X59.713 Y72.891 E15.54578
G1 X60.611 Y72.826 E15.55425
G1 X189.402 Y72.828 E16.76556
G1 X190.105 Y72.868 E16.77219
G1 X190.602 Y72.945 E16.77692
G1 X190.972 Y73.018 E16.78046
G1 X191.756 Y73.227 E16.7881
G1 X192.135 Y73.355 E16.79186
G1 X192.788 Y73.618 E16.79848
G1 X193.269 Y73.87 E16.80359
G1 X193.948 Y74.265 E16.81097
G1 X194.535 Y74.653 E16.81759
G1 X195.218 Y75.244 E16.82609
G1 X195.772 Y75.799 E16.83346
G1 X196.24 Y76.325 E16.84008
G1 X196.761 Y77.092 E16.84881
G1 X197.152 Y77.773 E16.85619
G1 X197.467 Y78.402 E16.86281
G1 X197.767 Y79.268 E16.87143
G1 X197.966 Y80.017 E16.87872
G1 X198.108 Y80.707 E16.88534
G1 X198.174 Y81.609 E16.89385
G1 X198.172 Y128.402 E17.33395
G1 X198.132 Y129.105 E17.34057
G1 X198.055 Y129.602 E17.3453
G1 X197.982 Y129.972 E17.34885
G1 X197.773 Y130.756 E17.35648
G1 X197.645 Y131.135 E17.36024
G1 X197.382 Y131.788 E17.36686
G1 X197.13 Y132.269 E17.37197
G1 X196.735 Y132.948 E17.37936
G1 X196.347 Y133.535 E17.38598
G1 X195.756 Y134.218 E17.39447
G1 X195.201 Y134.772 E17.40185
G1 X194.675 Y135.24 E17.40847
G1 X193.908 Y135.761 E17.41719
G1 X193.227 Y136.152 E17.42458
G1 X192.598 Y136.467 E17.43119
G1 X192.105 Y136.655 E17.43615
G1 X191.737 Y136.778 E17.4398
G1 X191.058 Y136.963 E17.44642
G1 X190.581 Y137.045 E17.45098
G1 X189.806 Y137.147 E17.45833
G1 X188.996 Y137.2 E17.46596
G1 X60.61 Y137.174 E18.67347
G1 X59.907 Y137.134 E18.68009
G1 X59.41 Y137.057 E18.68482
G1 X59.015 Y136.979 E18.68861
G1 X58.333 Y136.803 E18.69523
G1 X57.822 Y136.615 E18.70035
G1 X57.098 Y136.312 E18.70773
G1 X56.465 Y136.004 E18.71436
G1 X55.703 Y135.5 E18.72295
G1 X55.084 Y135.022 E18.7303
G1 X54.552 Y134.561 E18.73692
G1 X53.944 Y133.876 E18.74554
G1 X53.471 Y133.256 E18.75287
G1 X53.076 Y132.673 E18.7595
G1 X52.668 Y131.858 E18.76807
G1 X52.37 Y131.135 E18.77542
G1 X52.139 Y130.47 E18.78205
G1 X52.021 Y129.979 E18.78679
G1 X51.945 Y129.596 E18.79047
G1 X51.847 Y128.899 E18.79709
G1 X51.826 Y128.389 E18.80189
G1 X51.828 Y81.598 E19.24197
G1 X51.868 Y80.895 E19.24859
G1 X51.945 Y80.398 E19.25332
G1 X52.018 Y80.028 E19.25687
G1 X52.227 Y79.244 E19.2645
G1 X52.355 Y78.865 E19.26826
G1 X52.618 Y78.212 E19.27488
G1 X52.87 Y77.731 E19.27999
G1 X53.265 Y77.052 E19.28738
G1 X53.653 Y76.465 E19.294
G1 X54.244 Y75.782 E19.30249
G1 X54.799 Y75.228 E19.30987
G1 X55.325 Y74.76 E19.31649
G0 F3600 X55.591 Y75.059
G1 F1800 X56.291 Y74.586 E19.32444
G1 X56.972 Y74.195 E19.33182
G1 X57.581 Y73.891 E19.33822
G1 X58.374 Y73.618 E19.34611
G1 X59.125 Y73.419 E19.35342
G1 X59.793 Y73.284 E19.35983
G1 X60.611 Y73.226 E19.36754
G1 X189.402 Y73.228 E20.57886
G1 X190.082 Y73.268 E20.58526
G1 X190.525 Y73.338 E20.58948
G1 X190.895 Y73.411 E20.59303
G1 X191.628 Y73.606 E20.60016
G1 X192.007 Y73.734 E20.60392
G1 X192.638 Y73.989 E20.61033
G1 X193.067 Y74.216 E20.61489
G1 X193.746 Y74.611 E20.62228
G1 X194.314 Y74.987 E20.62869
G1 X194.935 Y75.526 E20.63642
G1 X195.489 Y76.081 E20.64379
G1 X195.941 Y76.591 E20.6502
G1 X196.414 Y77.291 E20.65815
G1 X196.805 Y77.972 E20.66554
G1 X197.109 Y78.581 E20.67194
G1 X197.381 Y79.371 E20.6798
G1 X197.58 Y80.12 E20.68708
G1 X197.715 Y80.787 E20.69349
G1 X197.774 Y81.609 E20.70124
G1 X197.772 Y128.402 E21.14134
G1 X197.732 Y129.082 E21.14774
G1 X197.662 Y129.525 E21.15196
G1 X197.589 Y129.895 E21.15551
G1 X197.394 Y130.628 E21.16264
G1 X197.266 Y131.007 E21.16641
G1 X197.011 Y131.638 E21.17281
G1 X196.784 Y132.067 E21.17737
G1 X196.389 Y132.746 E21.18476
G1 X196.013 Y133.314 E21.19117
G1 X195.474 Y133.935 E21.1989
G1 X194.919 Y134.489 E21.20628
G1 X194.409 Y134.941 E21.21268
G1 X193.709 Y135.414 E21.22063
G1 X193.028 Y135.805 E21.22802
G1 X192.419 Y136.109 E21.23442
G1 X191.979 Y136.276 E21.23884
G1 X191.611 Y136.399 E21.24249
G1 X190.953 Y136.576 E21.2489
G1 X190.529 Y136.648 E21.25295
G1 X189.754 Y136.75 E21.2603
G1 X188.996 Y136.8 E21.26744
G1 X60.61 Y136.774 E22.47495
G1 X59.93 Y136.734 E22.48136
G1 X59.487 Y136.664 E22.48558
G1 X59.092 Y136.586 E22.48936
G1 X58.433 Y136.415 E22.49577
G1 X57.977 Y136.246 E22.50034
G1 X57.253 Y135.943 E22.50772
G1 X56.641 Y135.644 E22.51413
G1 X55.947 Y135.184 E22.52196
G1 X55.328 Y134.706 E22.52931
G1 X54.815 Y134.259 E22.53571
G1 X54.262 Y133.633 E22.54357
G1 X53.789 Y133.013 E22.5509
G1 X53.408 Y132.448 E22.55731
G1 X53.038 Y131.705 E22.56512
